svg/fluentui-system-icons/ic_fluent_brightness_low_48_regular.svg

<svg width="48" height="48" viewBox="0 0 48 48" fill="none" xmlns="http://www.w3.org/2000/svg">
<path d="M24.0004 7C24.6908 7 25.2504 7.55964 25.2504 8.25V10.75C25.2504 11.4404 24.6908 12 24.0004 12C23.3101 12 22.7504 11.4404 22.7504 10.75V8.25C22.7504 7.55964 23.3101 7 24.0004 7ZM24.0461 34.0216C29.5553 34.0216 34.0214 29.5555 34.0214 24.0463C34.0214 18.5371 29.5553 14.071 24.0461 14.071C18.5369 14.071 14.0707 18.5371 14.0707 24.0463C14.0707 29.5555 18.5369 34.0216 24.0461 34.0216ZM24.0461 31.5216C19.9176 31.5216 16.5707 28.1748 16.5707 24.0463C16.5707 19.9178 19.9176 16.571 24.0461 16.571C28.1746 16.571 31.5214 19.9178 31.5214 24.0463C31.5214 28.1748 28.1746 31.5216 24.0461 31.5216ZM39.7504 25.25C40.4408 25.25 41.0004 24.6904 41.0004 24C41.0004 23.3096 40.4408 22.75 39.7504 22.75H37.2504C36.5601 22.75 36.0004 23.3096 36.0004 24C36.0004 24.6904 36.5601 25.25 37.2504 25.25H39.7504ZM24.0004 36C24.6908 36 25.2504 36.5596 25.2504 37.25V39.7497C25.2504 40.44 24.6908 40.9997 24.0004 40.9997C23.3101 40.9997 22.7504 40.44 22.7504 39.7497V37.25C22.7504 36.5596 23.3101 36 24.0004 36ZM10.7504 25.25C11.4408 25.25 12.0004 24.6904 12.0004 24C12.0004 23.3096 11.4408 22.75 10.7504 22.75H8.25C7.55964 22.75 7 23.3096 7 24C7 24.6904 7.55964 25.25 8.25 25.25H10.7504ZM12.3666 12.3661C12.8547 11.878 13.6462 11.878 14.1343 12.3661L15.6343 13.8661C16.1225 14.3543 16.1225 15.1457 15.6343 15.6339C15.1462 16.122 14.3547 16.122 13.8666 15.6339L12.3666 14.1339C11.8784 13.6457 11.8784 12.8543 12.3666 12.3661ZM14.1343 35.6339C13.6462 36.122 12.8547 36.122 12.3666 35.6339C11.8784 35.1457 11.8784 34.3543 12.3666 33.8661L13.8666 32.3661C14.3547 31.878 15.1462 31.878 15.6343 32.3661C16.1225 32.8543 16.1225 33.6457 15.6343 34.1339L14.1343 35.6339ZM35.6343 12.3661C35.1462 11.878 34.3547 11.878 33.8666 12.3661L32.3666 13.8661C31.8784 14.3543 31.8784 15.1457 32.3666 15.6339C32.8547 16.122 33.6462 16.122 34.1343 15.6339L35.6343 14.1339C36.1225 13.6457 36.1225 12.8543 35.6343 12.3661ZM33.8666 35.6339C34.3547 36.122 35.1462 36.122 35.6343 35.6339C36.1225 35.1457 36.1225 34.3543 35.6343 33.8661L34.1343 32.3661C33.6462 31.878 32.8547 31.878 32.3666 32.3661C31.8784 32.8543 31.8784 33.6457 32.3666 34.1339L33.8666 35.6339Z" fill="#212121"/>
</svg>

<svg xmlns="http://www.w3.org/2000/svg" width="48" height="48"><path d="M24 7c.69 0 1.25.56 1.25 1.25v2.5a1.25 1.25 0 1 1-2.5 0v-2.5c0-.69.56-1.25 1.25-1.25Zm.046 27.022c5.51 0 9.975-4.466 9.975-9.976 0-5.509-4.466-9.975-9.975-9.975-5.51 0-9.975 4.466-9.975 9.975 0 5.51 4.466 9.976 9.975 9.976Zm0-2.5a7.475 7.475 0 1 1 0-14.951 7.475 7.475 0 0 1 0 14.95ZM39.75 25.25a1.25 1.25 0 1 0 0-2.5h-2.5a1.25 1.25 0 0 0 0 2.5h2.5ZM24 36c.69 0 1.25.56 1.25 1.25v2.5a1.25 1.25 0 0 1-2.5 0v-2.5c0-.69.56-1.25 1.25-1.25ZM10.75 25.25a1.25 1.25 0 1 0 0-2.5h-2.5a1.25 1.25 0 1 0 0 2.5h2.5Zm1.617-12.884a1.25 1.25 0 0 1 1.767 0l1.5 1.5a1.25 1.25 0 1 1-1.767 1.768l-1.5-1.5a1.25 1.25 0 0 1 0-1.768Zm1.767 23.268a1.25 1.25 0 0 1-1.767-1.768l1.5-1.5a1.25 1.25 0 0 1 1.767 1.768l-1.5 1.5Zm21.5-23.268a1.25 1.25 0 0 0-1.767 0l-1.5 1.5a1.25 1.25 0 1 0 1.767 1.768l1.5-1.5a1.25 1.25 0 0 0 0-1.768Zm-1.767 23.268a1.25 1.25 0 0 0 1.767-1.768l-1.5-1.5a1.25 1.25 0 0 0-1.767 1.768l1.5 1.5Z"/></svg>
